X: 11904
T: Emma's Tune
R: waltz
M: 3/4
K: Gmajor
D/E/G|:B4AB|e4G2|E3DE<G|A4d2|B3DE/G/B|A4 G/A/B|c4B2|A4 D/E/G|
B4AB|e4G2|E3DE<G|A4d2|B3DE/G/B|A4 G<F|G2d2c2|1 B4 D/E/G:|2 B4 B/c/d||
g4b2|a2g3f|e3de/f/g|B4e<g|A4e<g|B3c/B/ G/A/B|c2d2e2|d4d/e/f|
g4b2|a2g3f|e4de<g|c4g2|B4B<g|A3B (4A/B/A/G/ F|G2d2c2|1 B4 B/c/d:|2 B4 D/E/G||

